X:1
T:Voi volete ch'io
T:Voi volete ch'io
T:Peter Philips
T:Source : Melodia Olympica---Anversa---P.Phalesio & G.Bellero---1591. Editor: André Vierendeels (14/01/14).
C:Peter Philips
%%score [ 1 2 [ 3 4 ] ]
L:1/8
Q:1/4=96
M:4/4
K:F
V:1 treble nm="Canto" snm="C"
V:2 treble nm="Alto" snm="A"
V:3 treble-8 nm="Tenor 1" snm="T 1"
V:4 treble-8 nm="Tenor 2" snm="T 2"
V:1
 d8 | d4 d4- | d2 d2 e4 | f8 | e8 | A2 e4 f2 | d4 e4 | A2 A2 d4- | d4 c4- | c4 B4- | B2 B2 A4 | %11
w: Voi|vo- le|_ te ch'io|mo-|ia'e|mi da- te|do- lor|si cru- d'e|_ for-|* te,|_ si cru-|
 A4 G4 | F8 | E8 | z8 | f2 e4 d2 | c6 B2 | A4 G4 | F2 f2 e4 | d4 c4 | =B4 c4 | d4 z4 | z8 | %23
w: d'e for-||te||che mi con-|du- ce'a|mor- *|te, che mi|con- du-|ce'a mor-|te,||
 z4 z2 g2- | g2 f4 e2- | e2 d4 c2- | c2 B4 A2 | z4 A4 | A6 =B2 | c4 d4 | c4 c4 | d4 c4 | B8 | %33
w: che|_ mi con-|* du- ce'a|_ mor- te,|ma|per ve-|der- ne|voi co-|si con-|ten-|
 A2 A4 B2 | c4 d2 e2 | f6 e2 | d2 c2 B2 A2- | A2 G2 A4 | z4 e4 | f4 d4 | f4 e4 | d8- | d4 ^c4 | %43
w: ta, men- tr'io|mo- r'il mo-|rir vi-|ta di- ven- *|* * ta,|on-|de ven-|den- d'ohi-|me,|_ ohi-|
 d4 d4 | f4 e4 | d4 A4 | A8- | A8 | z4 A4 | =B4 c2 d2- | d2 f2 e4 | f4 z2 c2 | d4 c2 B2- | %53
w: me do-|len- te|vo- *|i|_|in|que- sta vi-|* ta po-|i mi|vien tan- to|
 B2 A2 G4 | A4 z4 | z4 z2 c2 | c4 d2 e2- | e2 g2 f4 | e4 e4 | f4 c2 d2- | d2 c2 B4 | A4 A4 | %62
w: _ mar- ti-|re,|mi|vien tan- to|_ mar- ti-|re, ch'ogn-|hor giun- g'al|_ mo- ri-|re, giun-|
 d4 e4 | ^c2 d4 c2 | d8 | z2 d2 f4 | e4 d3 d | c2 A2 d2 d2 | c2 A2 z4 | z4 e4 | f4 e4 | %71
w: g'al mo-|ri- * *|re,|e co-|si mil- le,|mil- le vol- te'il|gior- no,|e|co- si|
 d3 d c2 A2 | F2 G2 A4 | G2 d2 f4 | e4 d3 d | c2 A2 B2 B2 | A3 B/c/ d4 | c8 | z8 | e8 | f8 | d8 | %82
w: mil- le, mil- le|vol- te'il gior-|no, e co-|si mil- le,|mil- le vol- te'il|gior- * * *|no,||per|voi|mo-|
 d8 | c4 A4- | A4 d4- | d2 cB c4 | d4 z2 f2- | f2 e2 f4 | c4 z2 d2- | d2 c2 d4 | A3 B c4 | %91
w: ro,|per voi|_ mo-||ro, e|_ mo- ren-|do, e|_ mo- ren-|* * do,|
 z2 f4 e2 | f4 e4 | z2 d2 d2 ^c2 | d4 e4 |"^#" z2 d2 d2 c2 | d4 e4 | f8 | e4 e4- | e2 d2 d4- | %100
w: e mo-|ren- do,|in- vi- ta|tor- no,|in vi ta|tor- no'in-|vi-|ta tor-||
 d4 ^c4 | d8 |] %102
w: |no.|
V:2
 A8 | B4 A4- | A2 A2 A4 | A8 | A8 | A2 A4 A2 | G4 G4 | F2 F2 B4- | B4 A4 | F8 | F6 C2 | F4 G4 | %12
w: Voi|vo- le-|* te ch'io|mo-|ia'e|mi da- te|do- lor|si cru- d'e|_ for-||te, si|cru- d'e|
 A8 | A8 | z4 z2 c2- | c2 B4 A2- | A2 G4 F2- | F2 E4 D2 | z2 A4 G2- | G2 F4 E2- | E2 D4 C2 | %21
w: for-|te|che|_ mi con-|* du- ce'a|_ mor- te,|che mi|_ con- du|_ c'ea mor-|
 B,4 A,4 | z2 G2 F2 E2- | E2 D4 C2 | B,2 A,2 z2 c2 | B2 A2 A2 G2 | F4 D2 z2 | z4 ^F4 | ^F6 G2 | %29
w: * te,|che mi con-|* du- ce'a|mor- te, che|mi con- du- ce'a|mor- te,|ma|per ve-|
 A4 G4 | A6 A2 | G2 F2 F4- | F4 E4 | F4 F2 F2 | G2 A4 B2 | c2 d3 d c2 | A4 G2 C2 | D2 D2 E4 | G8 | %39
w: der- ne|voi co-|si con- ten-||ta, men- tr'io|mo- r'il mo-|rir vi- ta di-|ven- ta, vi-|ta di- ven-|ta,|
 z4 A4 | c6 B2 | A4 G4 | A4 z2 A2 | A4 B4 | A6 G2 | F4 D4 | D4 E4 | F8 | E4 ^F4 |"^b" G4 A2 B2- | %50
w: on-|de ve-|den- d'ohi-|me, ohi-|me do-|len- te|voi, do-|len- te|vo-|i, in|que- sta vi-|
 B2 A2 c4 | A4 A4 | B4 A2 G2- | G2 F2 E4 | F4 B2 A2- | A2 A2 G4 | A4 B2 c2- | c2 G2 A2 B2 | c4 G4 | %59
w: * ta po-|i mi|vien tan- to|_ mar- ti-|re, tan- to|_ mar- ti-|re, tan- to|_ mar- ti- *|re, ch'ogn-|
 A4 F2 F2- | F2 F2 F4 | F4 F4 | A4 B4 | A8 | ^F4 z2 A2 | B4 A4 | G3 G F2 D2 | E2 F2 F2 G2 | %68
w: hor giun- g'al|_ mo- ri-|re, giun-|g'al mo-|ri-|re, e|co- si|mil- le, mil- le|vol- te'il gior- *|
 A2 A2 B4 | A4 G2 E2 | A3 A A2 A2 | F4 F4 | z4 c3 c | B2 G2 A2 B2 | c4 F2 G2 | A2 F2 G3 G | %76
w: no, e co-|si mil- le,|mil- le vol- te'il|gior- no,|mil- le,|mil- le vol- te'il|gior- no, e|co- si mil- le,|
 c2 A2 A2 G2 | A8 | G8- | G8 | z4 F4- | F4 G4- | G4 F4- | F4 F4 | A4 A4 | A8 | A8 | A6 F2 | A4 D4 | %89
w: mil- le vol- te'il|gior-|no,|_|per|_ voi|_ mo-|* ro,|per voi|mo-|ro,|e mo-|ren- do,|
 z2 F4 D2 | F4 A2 G2 | A4 G4 | A3 B c2 A2- | A2 G2 A4- | A4 A4- | A2 A2 A4- | A2 A2 G2 E2 | A4 A4 | %98
w: e mo-|ren- do, mo-|ren- do'in|vi- * * ta|_ tor- no,|_ mo-|* ren- do|_ in- vi- ta|tor- no,|
 z2 A2 A4- | A4 G4 | A8 | A8 |] %102
w: in vi-|* ta|tor-|no.|
V:3
 f8 | g4 f4- | f2 f2 e4 | d8 | ^c8 |"^-natural""^-natural" c2 c4 d2 | =B4 ^c4 | d4 f4 | f6 c2 | %9
w: vo-|le te|_ ch'io mo-|ia'e|mi|da- te do-|lor si|cru- d'e|for- te,|
 d8 | c4 c4 | B4 B4 | A2 Bc d4 | ^c8 | z4 a4- | a2 g4 f2- | f2 e4 d2- | d2 c4 B2 | z8 | z8 | %20
w: |si cru-|d'e for-|te * * *|che|mi|_ con- du-|* ce'a mor-|_ te, che|||
 z4 g4- | g2 f4 e2 | d4 c4 | B3 A G4 | d4 a4 | g2 f2 f2 e2 | d2 d2 z4 | z4 d4 | d6 d2 | %29
w: mi|_ con- du-|ce'a mor-|te, * che|mi con-|du- ce'a mor- te,|* ma|per|ve- der-|
"^-natural" f4 d4 | e4 f4 | d4 f4 | g8 | c4 c2 d2 | e2 f4 g2 | a2 d2 a2 g2 | f4 e4 | d4 z2 c2 | %38
w: ne voi|co- si|con- ten-|ta,|men- tr'io mo-|r'il mo- rir|vi- _ ta di-|ven- ta,|vi- ta|
 d2 d2 ^c4 | d8 | z4 e4 | f4 d4 | f4 e4 | d8- | d4 ^c4 | d4 d4 | f4 e4 | d8 | ^c4 c4 | d4 f2 f2- | %50
w: di- ven- ta,|on-|de|ve- den-|d'ohi- me,|ohi-|_ me|do- len-|te vo-|i,|in que-|sta vi- ta|
 f2 f2 g4 | f4 f4 | B4 c2 _e2- | e2 f2 c4 | c2 d4 c2- | c2 f2 e4 | f4 d2 c2- | c2 e2 d4 | c4 c4 | %59
w: * po- i,|mi vien|tan- to mar-|_ ti- re,|tan- to mar-|_ ti- re,|tan- to mar-|_ ti- re,|ch'ogn- hor|
 c4 A2 B2- | B2 c2 d4 | c4 c4 | f2 f2 g4- | g2 f2 e4 | d8- | d8 | z8 | z4 d4 | f4 e2 d2- | %69
w: giun- g'al mo-|_ ri- re,|giun- g'al|mo- ri- re,||e|_||co-|si mil- le,|
 d2 d2 d2 c2 | d2 A2 c4 | d4 z4 | d3 d c2 A2 | d4 d4 | c2 A2 B3 B | A2 d2 d2 d2 | f4 d2 d2 | f8 | %78
w: * mil- le vol-|te'il gior- no,|mil-|le, mil- le vol-|te'il gior-|no, mil- le, mil-|le vol- te'il gior-|no, per voi|mo-|
 e4 d4- | d4 c4 | d4 A4 | B8 | A8 | A4 c4 | f8 | e8 | d4 d4- | d2 ^c2 d4 | A4 z2 B2- | B2 A2 B4 | %90
w: ro, *||per voi|mo-|ro,|per voi|mo-|ro,|e mo-|_ ren- do,|e mo-|_ ren- do,|
 F4 z2 c2- | c2 A2 c4 | F4 z2 c2 | d2 d2 e4 | d4 z2 A2 | f2 f2 e4 | d4 d2 ^c2 | d2 d2 d4- | %98
w: e mo-|_ ren- do|in vi-|ta tor- no,|in vi-|ta tor- no,-|in vi- ta,|in vi- ta|
"^#" d4 c4 | d8 | e8 | ^f8 |] %102
w: * tor-|no.||Voi|
V:4
 d8 | G4 d4- | d2 d2 ^c4 | d4 D4 | A8 | A2 A4 D2 | G4 E4 | D4 D4 | F8- | F8 | F8 | D8- | D8 | A8- | %14
w: vo-|le te|_ ch'io mo-|ia'e *|mi|da- te do-|lor si|cru- d'e|for-|_|te|||che|
 A8 | z8 | z8 | z8 | d4 c4 | B4 A4 | G4 E4 | D2 d4 c2- | c2 B2 A2 A2 | G3 F E4 | D4 z4 | z8 | z8 | %27
w: _||||mi con-|du- cea|mor- te,|che mi con-|_ du- ce'a mor-|te * *|ma|||
 D8 | D6 G2 |"^-natural" F4 B4 | A4 F4 | B4 A4 | G8 | F8 | z8 | z2 D4 E2 | F4 G2 A2 | B4 A4 | %38
w: per|ve- der-|ne voi|co- si|con- ten-|ta,|men-||tr'io mo-|ril mo- rir|vi- ta|
 G2 F2 E4 | D4 D4 | A6 G2 | F4 B4 | A4 A4 | ^F4 G4 | A8 | D4 z2 D2 | D4 ^C4 | D8 | A4 A4 | %49
w: di- ven- ta,|on- de|ve- den-|d'ohi- me|do- len-|te vo-|i,|do- len-|te vo-|i,|in que-|
"^b" G4 F2 B2- | B2 d2 c4 | F8 | z8 | z4 C4 | F4 G2 A2- | A2 F2 c4 | F4 z4 | z8 | z4 C4 | %59
w: sta vi- ta|* po- i,|mi||vien|tan- ti mar-|_ ti- re,|ch'ogn-||hor|
 F4 F2 B,2- | B,2 A,2 B,4 | F4 F4 | D4 G4 | A8 | D8- | D8 | z8 | A4 B4 | A4 G3 G | F2 D2 G2 A2 | %70
w: giun- g'al mo-|_ ri- re,|giun- g'al|mo- ri-|re,|e|_||co- si|mil- le, mil-|le vol- te'il gior-|
 D4 A4 | B3 B A2 F2 | B4 F4 | G4 D4 | z8 | z2 D2 G4 | F4 B3 B | A4 F4 | G4 F4 | E8 | D8 | z8 | D8 | %83
w: no, mil-|le, mil- le vol-|te'il gior-|no, e||co- si|mil- le, mil-|le vol-|te'il gior-|no,|per||voi|
 F8 | D2 E2 F2 G2 | A8 | D8 | z8 | z8 | z8 | z2 F4 E2 | F4 C4 | z2 F2 A2 A2 | B4 A4 | %94
w: mo-|ro, * * *||e||||mo- ren-|do in|vi- ta tor-|no, in|
 z2 d2 d2 ^c2 | d4 A4 | z2 D2 G2 A2 | D8 | A4 A4 | F4 B4 | A8 | D8 |] %102
w: vi- ta tor-|no, in|vi- ta tor-|no,|in vi-|ta tor-|no.||

